X:912802
T:Hallelujah
% %score {M P9} P3
% %score 1 { ( 2 3 ) | ( 4 5 ) } ( 6 7 ) ( 8 9 ) 10 ( 11 12 )
B:
H:
C:
O:Transcribed by Kevin Fraser
Z:Kevin Fraser
K:A
% K:Amix
% K:AMix sound=A_b
% K:{g}B{d}BMix score=_{g}B{e}A %concert Pitch
L:1/8
Q:3/8=90
M:12/8
%%MIDI drummap ^a 49
%%MIDI drummap ^g 42
%%MIDI drummap _g 46
%%MIDI drummap c 38
%%MIDI drummap F 35
%%MIDI gracedivider 100
%%MIDI gchord
%%MIDI beatstring
% %MIDI program 109 #bagpipes
%%MIDI vol 100
% %MIDI droneon
%I:MIDI=program 110
%I:linebreak $
%V:M clef=treble transpose=-2 nm="Piper Melody" snm="P1 Melody" 
%%align 80
V:M clef=treble nm="Piper Melody" snm="P1 Melody" 
V:4 clef=treble-8 nm="Acoustic Guitar" snm="Guit9" 
V:P3 clef=treble nm="Melody 1" snm="M1" 
V:P5 clef=treble nm="Bass 1" snm="B1" 
V:P7 clef=treble nm="Melody 2" snm="M2"
V:P9 clef=treble nm="Bass 2" snm="B2"
V:BT clef=perc nm="Bass Tenor" snm="B&T"
V:S clef=perc nm="Snare" snm="Snare"
V:BB gstem=up stem=down name="Brass Bass" sname="ABCD-C" transpose=-1  octave=-1 clef=bass
V:BC gstem=up stem=down name="Brass Chord" sname="ABCD-D" transpose=-1
V:BD gstem=up stem=down name="Brass Chord 2" sname="ABCD-B" transpose=-1
V:P gstem=up stem=down name="Piano" octave=-1
V:M
c  |: {g}e2{A}e        {g}e2{A}e {g}f{g}f{g}f- {g}f2c  |  {g}e2{A}e    {g}e2{A}e {g}f{g}f{g}f {g}f2e | {g}f2{g}f    {g}f2{g}f {g}f2e {g}e2d     | {g}                 e3 {A} e6- e{g}cd            | $
w: I've | heard there was a se-cret chord - that| Da-vid played and it pleased the lord but| you don't real-ly care  for mu-sic | do ya Well it |
      {g}e2{A}e        {g}e2{A}e {g}f2{e}f {gf}g2 e    |  {ag}a2{g}a   {g}a2f {ag}a2{g}a B2A         | {g}B2{d}B    {g}B2{d}B {g}c2{d}c {g}c2 B | {g}B2A              {GAG}A6 {g}c2e               | $
w: goes like this   the  fourth the fifth the | min-or     fall  the   ma-jor     lift the | baf-fled king com-po-sing hal-le- | lu-jah - Hal-le |$
      {g}f3{GdG}f6     {g}f2e                          |  {g}c3        {GdG} c6 {g}c2e               | {g}f3{GdG}f6 {g}f2e                      | {g}c3-              cBc {gBd}B3-B2 A             | \
w:   lu-jah  Hal-le           | lu-jah  Hal-le            | lu-jah  Hal-le            | lu-jah  Hal-le |
      {GAG}A3-A3-A3-   A{g}fe                         ||  $
w:  jah-        -Well your|
  ||  {g}e2{A}e        {g}e2{A}e {g}f{g}f{g}f- {g}f2c  |  {g}e2{A}e    {g}e2{A}e {g}f{g}f{g}f {g}f2e | {g}f2{g}f    {g}f2{g}f {g}f2e {g}e2d     | {g}                 e3 {A} e6- e{g}cd            | $
      {g}e2{A}e        {g}e2{A}e {g}f2{e}f {gf}g2 e    |  {ag}a2{g}a   {g}a2f {ag}a2{g}a B2A         | {g}B2{d}B    {g}B2{d}B {g}c2{d}c {g}c2 B | {g}B2A              {GAG}A6 {g}c2e               | $
      {g}f3{GdG}f6     {g}f2e                          |  {g}c3        {GdG} c6 {g}c2e               | {g}f3{GdG}f6 {g}f2e                      | {g}c3-              cBc {gBd}B3-B2 A             | \
      {GAG}A3-A3-A3-   A{g}fe                         ||  $
  ||  {g}e2{A}e        {g}e2{A}e {g}f{g}f{g}f- {g}f2c  |  {g}e2{A}e    {g}e2{A}e {g}f{g}f{g}f {g}f2e | {g}f2{g}f    {g}f2{g}f {g}f2e {g}e2d     | {g}                 e3 {A} e6- e{g}cd            | $
      {g}e2{A}e        {g}e2{A}e {g}f2{e}f {gf}g2 e    |  {ag}a2{g}a   {g}a2f {ag}a2{g}a B2A         | {g}B2{d}B    {g}B2{d}B {g}c2{d}c {g}c2 B | {g}B2A              {GAG}A6 {g}c2e               | $
      {g}f3{GdG}f6     {g}f2e                          |  {g}c3        {GdG} c6 {g}c2e               | {g}f3{GdG}f6 {g}f2e                      | {g}c3-              cBc {gBd}B3-B2 A             | \
      {GAG}A3-A3-A3-A3                                 |]
V:P9 
c  |: {g}e2{A}e        {g}e2{A}e {g}f{g}f{g}f- {g}f2c  |  {g}e2{A}e    {g}e2{A}e {g}f{g}f{g}f {g}f2e | d6           e6                          | A6                  G6                           | $
      {g}e2{A}e        {g}e2{A}e {g}f2{e}f {gf}g2 e    |  c2           c c2 c d2 d e2 e              | {g}B2{d}B    {g}B2{d}B {g}c2{d}c e3      | {g}B2A              {GAG}A6 {g}c2e               | %8
      B3               B6 {g}f2e                       |  f3f6         {g}c2e                        | B3           B6 {g}f2e                   | a6                  e6                           | %12
      Aea-             a2g f3-f dd                    ||  %13
  ||  A3               AAG f3-ffG                      |  A3           AAG f3 AAG                    | A3-          AAA g3 Agg                  | A3-ABc              B2A G2f                      | %17
      {g}e2{A}e        {g}e2{A}e {g}f2{e}f {gf}g2 e    |  {ag}a2{g}a   {g}a2f {ag}a2{g}a d3          | {g}B2{d}B    {g}B2{d}B {g}c2{d}c {g}c2 B | {g}B2A              {GAG}A6 {g}c2e               | %21
      f3{GdG}f6        {g}f2e                          |  {g}c3        {GdG} c6 {g}c2e               | {g}f3{GdG}f6 {g}f2e                      | {g}c3-              cBc {gBd}B3-B2 A             |
      {GAG}A3          e3 {GAG}A3 e{g}fe              ||  %26
      {g}e2{A}e        {g}e2{A}e {g}f{g}f{g}f- {g}f2c  |  A6           c2f- f2e                      | {g}f2{g}f    {g}f2{g}f {g}f2e {g}e2d     | {g}                 e3 {A} e6- e{g}cd            | a6d3e3                                             |
      A3-AAG           f3 dGA                          |  e6           e3 e3                         | fce          f2e c3 A3                   | B3                  B6 {g}f2e                    | f3f6                 {g}c2e                        | B3                   B6 {g}f2e  | a6  e6    | A3 aag f3 c3                      ||
V:P3
c  |: {g}e2{A}e        {g}e2{A}e {g}f{g}f{g}f- {g}f2c  |  {g}e2{A}e    {g}e2{A}e {g}f{g}f{g}f {g}f2e | {g}f2{g}f    {g}f2{g}f {g}f2e {g}e2d     | {g}                 e3 {A} e6- e{g}cd            | $
      A6               A3 B3                           |  [f]12                                      | e6           G3 B3                       | [a]3-[a]3-[a]3-[a]3                              | $
      {g}f3{GdG}f6     {g}f2e                          |  {g}c3        {GdG} c6 {g}c2e               | {g}f3{GdG}f6 {g}f2e                      | {g}c3-              cBc {gBd}B3-B2 A             | {GAG}A3-A3-A3-A{g}fe                              || %13                  && 14
  ||  {g}e2{A}e        {g}e2{A}e {g}f{g}f{g}f- {g}f2c  |  {g}e2{A}e    {g}e2{A}e {g}f{g}f{g}f {g}f2e | {g}f2{g}f    {g}f2{g}f {g}f2e e2d        | {g}                 e3 {A} e6- e{g}cd            | c3-c3                [A]3[B]3                      |
      c3               [c]3 [d]3- [f][g][a]            |  [g]6         [B]6                          | f2g          a2g [a]6                    | $                   %22
      [f]3             [f]6 {g}f2e                     |  A3A6         {g}c2e                        | d3           d6 {g}f2e                   | e12                                              |
      Aea              c3-cda d2c                     ||  %27          & 28
      c6               BA2- A2 B                       |  {g}e2{A}e    {g}e2{A}e {g}f{g}f{g}f {g}f2e | A3           d3 d3 Agg                   | f3                  fga g2f e2d                  | {g}e2{A}e            {g}e2{A}e {g}f2{e}f {gf}g2 e  |
V:P3
      {ag}a2{g}a       {g}a2f {ag}a2{g}a B2A           |  {g}B2{d}B    {g}B2{d}B {g}c2{d}c {g}c2 B   | {g}B2A       {GAG}A6 {g}c2e              | $                   %22
      {g}f3{GdG}f6     {g}f2e                          |  {g}c3        {GdG} c6 {g}c2e               | {g}f3{GdG}f6 {g}f2e                      | {g}c3-              cBc {gBd}B3-B2 A             | {GAG}A3-A3-A3-A3                                  || %27                  & 28
V:P5
c  |: {g}e2{A}e        {g}e2{A}e {g}f{g}f{g}f- {g}f2c  |  {g}e2{A}e    {g}e2{A}e {g}f{g}f{g}f {g}f2e | {g}f2{g}f    {g}f2{g}f {g}f2e {g}e2d     | {g}                 e3 {A} e6- e{g}cd            | $
      c6               d3 e3                           |  [f]12                                      | [g]6         [e]3 [g]3                   | f6                  c3 f3                        | $
      {g}f3{GdG}f6     {g}f2e                          |  {g}c3        {GdG} c6 {g}c2e               | {g}f3{GdG}f6 {g}f2e                      | {g}c3-              cBc {gBd}B3-B2 A             | %12
      {GAG}A3          e3 {GAG}A3 e{g}fe              ||  %13
  ||  {g}e2{A}e        {g}e2{A}e {g}f{g}f{g}f- {g}f2c  |  {g}e2{A}e    {g}e2{A}e {g}f{g}f{g}f {g}f2e | {g}f2{g}f    {g}f2{g}f {g}f2e e2d        | [c]3-[c]ef          e2c B2A                      | a6d3e3                                             | %19
      A3               A3 A3-ABc                       |  e6           g6                            | f2e          f2e c3 {g}c2e               | $                   %22
      B3               B6 {g}f2e                       |  f3f6         {g}c2e                        | B3           B6 {g}f2e                   | a6                  e6                           | %12
      Aea-             a2g f3-fdc                     ||  %27          & 28
      A6               d2c fce                         |  {g}e2{A}e    {g}e2{A}e {g}f{g}f{g}f {g}f2e | dfa          A3 g3 B[c][d]               | [c]3-[c]ef          e2c B2A                      |
      {g}e2{A}e        {g}e2{A}e {g}f2{e}f {gf}g2 e    |  {ag}a2{g}a   {g}a2f {ag}a2{g}a B2A         | {g}B2{d}B    {g}B2{d}B {g}c2{d}c {g}c2 B | {g}B2A              {GAG}A6 {g}c2e               | $
      {g}f3{GdG}f6     {g}f2e                          |  {g}c3        {GdG} c6 {g}c2e               | {g}f3{GdG}f6 {g}f2e                      | {g}c3-              cBc {gBd}B3-B2 A             | %12
      {GAG}A3-A3-A3-A3                                ||
V:P7
c  |: {g}e2{A}e        {g}e2{A}e {g}f{g}f{g}f- {g}f2c  |  {g}e2{A}e    {g}e2{A}e {g}f{g}f{g}f {g}f2e | d6           e6                          | c3-cdc              B3-Bcd                       | $
      {g}e2{A}e        {g}e2{A}e {g}f2{e}f {gf}g2 e    |  {ag}a2{g}a   {g}a2f {ag}a2{g}a B2A         | {g}B2{d}B    {g}B2{d}B {g}c2{d}c {g}c2 B | {g}B2A              {GAG}A6 {g}c2e               | $
      [f]3             [f]6 {g}f2e                     |  A3A6         {g}c2e                        | d3           d6 {g}f2e                   | e12                                              |
      Aea              c3-cea c3                      ||  %13          && 14
  ||  Aea              c3 Ada c3                       |  Aea          c3 Ada c3                     | dfa          d3 d3 Bcd                   | %17
      f3               fga g2f e2d                     |  {g}e2{A}e    {g}e2{A}e {g}f2{e}f {gf}g2 e  | {ag}a2{g}a   {g}a2f {ag}a2{g}a B2A       | {g}B2{d}B           {g}B2{d}B {g}c2{d}c {g}c2 B  | %21
      B2A              c2B A3 {g}c2e                   |  {g}f3{GdG}f6 {g}f2e                        | {g}c3        {GdG} c6 {g}c2e             | {g}f3{GdG}f6        {g}f2e                       | {g}c3-               cBc {gBd}B3-B2 A              | {GAG}A3-A3-A3-A{g}fe           || %27 & 28
      {g}e2{A}e        {g}e2{A}e {g}f{g}f{g}f- {g}f2c  |  c3-c2B       A3- Acg                       | {g}f2{g}f    {g}f2{g}f {g}f2e {g}e2d     | A3-ABc              B2A G2f                      | A6                   A3 B3                         | c3                   B3 A3-ABc  | g3  g3 g6 |
V:P7
      f2g              a2g a3e3                        |
V:P7
      f                aB c2B a3 B3                    |
V:P7
      A3A6             {g}c2e                          |  d3           d6 {g}f2e                     | e12                                      | aea                 c3 cea a3                   ||

